X:1
T:My Love is Like a Red, Red Rose [2]
T:Major Graham of Inchbrakie
M:C
L:1/8
R:Air
B:Johnson - Scots Musical Museum vol 5 (1796, No. 402)
K:F
F|C>D F>F F>F f>d|cA G>F G3A|C>D F>F F<F f>d|c<A G>A F3||
(c/d/4e/4)|f>g fe d>c d>f|cA GF G3e|f>g fe d>c df|c>A G>A F3 (c/d/4e/4)|
f>g fe d>c df/d/|cA GF {F}G3A|C>D F>F F<F f>d|c<A G>A F3||

